X: 1
T: The Queen Of May
R: reel
M: 4/4
L: 1/8
K: Edor
Bcdf ~e2 dB|ADFD FA ~A2|Bcdf edBc|dBA=c BDFA|
B2 BA BcdB|ADFD FA ~A2|Bcdf edBc|dBA=c BDFA||
~B2 eB fBeB|defa afed|~B2 eB fBeB|dBA=c BDFA|
(3Bcd eg fdeB|defa af e2|fbba fafe|dBA=c BDFA||


Tune 2518	Setting 26654

